X: 781
M: C
L: 1/8
K: Em
V: 1
E<EE2 E>FTB>A | E<EE2 TF>DA>F |\
E<EE2 E>FTB>A | B>dA>B TF>DA :|
|: d |\
|: f |\
e<ee2 e>fb>f | e<ee2 fda>f |\
e<ee2 e>fb>f | g>eb>e f>da>f |\
g<eb>e g>eb>e | (f/g/a) e>f d>DA :|
|: (e |\
V: 2 clef=bass middle=d
z |\
e2e2 e2e2 | e2e2 d2d2 |\
e2e2 e2e2 | e2e2 d2d :|\
|: z |\
e2e2 e2e2 | e2e2 d2d2 |\
e2e2 d2d2 | d2d2 d2d :|\
|: z |\
e2e2 e2e2 | e2e2 d2d2 |\
e2e2 e2e2 | e2e2 d2d2 |\
e2e2 e2e2 |
d2d2 d2d :|\
|: z |\
e2e2 e2e2 | e2e2 d2d2 |\
e2e2 e2e2 | e2e2 d2d2 |\
e2e2 d2d2 | d2d2 d2d :|

